;FLAVOR:Marlin
;TIME:5931
;Filament used: 4.07678m
;Layer height: 0.2
;MINX:95.076
;MINY:89.708
;MINZ:0.2
;MAXX:154.778
;MAXY:120.292
;MAXZ:48
;LINEARADVANCEPROCESSED
;Generated with Cura_SteamEngine 4.5.0
M82 ;absolute extrusion mode
G21 ; set units to millimeters
G90 ; use absolute positioning
M82 ; absolute extrusion mode
M104 S220 ; set extruder temp
M140 S60 ; set bed temp
M190 S60 ; wait for bed temp
M109 S220 ; wait for extruder temp
G28 W ; home all without mesh bed level
G80 ; mesh bed leveling
G92 E0.0 ; reset extruder distance position
G1 Y-3.0 F1000.0 ; go outside print area
G1 X60.0 E9.0 F1000.0 ; intro line
G1 X100.0 E21.5 F1000.0 ; intro line
G92 E0.0 ; reset extruder distance position
G92 E0
G92 E0
G1 F1800 E-0.8
;LAYER_COUNT:240
M900 K0.000000 T0 ;added by LinearAdvanceSettingPlugin
;LAYER:0
M106 S12.8
G1 F600 Z0.8
G0 F4266.7 X96.735 Y96.046 Z0.8
;TYPE:SKIRT
G1 F600 Z0.2
G1 F1800 E0.08315
G1 F1200 X97.192 Y95.633 E0.10466
G1 X97.767 Y95.21 E0.12959
G1 X98.258 Y94.924 E0.14944
G1 X99.096 Y94.599 E0.18082
G1 X99.621 Y94.453 E0.19986
G1 X100.316 Y94.339 E0.22445
G1 X100.872 Y94.293 E0.24393
G1 X101.966 Y94.219 E0.28223
G1 X123.328 Y92.921 E1.02963
G1 X124.187 Y92.882 E1.05966
G1 X125.165 Y92.869 E1.09382
G1 X126.01 Y92.892 E1.12334
G1 X126.694 Y92.937 E1.14728
G1 X127.425 Y93.014 E1.17295
G1 X128.024 Y93.101 E1.19409
G1 X128.929 Y93.267 E1.22622
G1 X129.56 Y93.411 E1.24882
G1 X130.367 Y93.627 E1.278
G1 X130.906 Y93.792 E1.29768
G1 X131.527 Y94.007 E1.32064
G1 X132.158 Y94.249 E1.34424
G1 X132.821 Y94.531 E1.3694
G1 X133.38 Y94.794 E1.39097
G1 X133.927 Y95.074 E1.41243
G1 X134.477 Y95.377 E1.43436
G1 X134.98 Y95.677 E1.45482
G1 X135.677 Y96.127 E1.48379
G1 X136.173 Y96.473 E1.50491
G1 X136.633 Y96.813 E1.52489
G1 X137.067 Y97.165 E1.5444
G1 X137.813 Y97.818 E1.57903
G1 X138.231 Y98.207 E1.59897
G1 X138.623 Y98.601 E1.61838
G1 X139.138 Y99.156 E1.64482
G1 X139.721 Y99.839 E1.67618
G1 X140.182 Y100.422 E1.70213
G1 X140.487 Y100.838 E1.72015
G1 X140.833 Y101.348 E1.74167
G1 X141.309 Y102.106 E1.77293
G1 X141.602 Y102.665 E1.79497
G1 X141.983 Y103.657 E1.83208
G1 X142.111 Y104.396 E1.85828
G1 X142.147 Y105.357 E1.89186
G1 X142.025 Y106.127 E1.91909
G1 X141.734 Y107.085 E1.95405
G1 X141.398 Y107.747 E1.97998
G1 X141.1 Y108.244 E2.00022
G1 X140.637 Y108.946 E2.02958
G1 X140.269 Y109.46 E2.05166
G1 X139.587 Y110.335 E2.0904
G1 X139.099 Y110.9 E2.11648
G1 X138.521 Y111.504 E2.14567
G1 X137.924 Y112.083 E2.17472
G1 X137.518 Y112.447 E2.19376
G1 X136.815 Y113.033 E2.22572
G1 X136.307 Y113.43 E2.24824
G1 X135.771 Y113.815 E2.27129
G1 X135.347 Y114.092 E2.28897
G1 X134.527 Y114.593 E2.32253
G1 X133.268 Y115.26 E2.37229
G1 X132.404 Y115.648 E2.40537
G1 X131.422 Y116.033 E2.4422
G1 X130.223 Y116.414 E2.48614
G1 X129.681 Y116.559 E2.50573
G1 X128.897 Y116.74 E2.53383
G1 X128.295 Y116.858 E2.55526
G1 X127.733 Y116.944 E2.57511
G1 X127.079 Y117.024 E2.59812
G1 X126.251 Y117.097 E2.62715
G1 X125.712 Y117.124 E2.646
G1 X125.01 Y117.135 E2.67052
G1 X123.887 Y117.109 E2.70974
G1 X101.408 Y115.747 E3.49622
G1 X100.869 Y115.707 E3.5151
G1 X100.026 Y115.617 E3.5447
G1 X99.466 Y115.516 E3.56458
G1 X98.504 Y115.174 E3.60023
G1 X97.989 Y114.931 E3.62012
G1 X97.441 Y114.562 E3.64319
G1 X96.698 Y113.916 E3.67758
G1 X96.248 Y113.369 E3.70231
G1 X95.926 Y112.901 E3.72215
G1 X95.651 Y112.403 E3.74202
G1 X95.406 Y111.75 E3.76638
G1 X95.305 Y111.428 E3.77816
G1 X95.143 Y110.609 E3.80732
G1 X95.104 Y110.071 E3.82616
G1 X95.077 Y108.763 E3.87184
G1 X95.076 Y100.797 E4.15004
G1 X95.085 Y100.195 E4.17107
G1 X95.168 Y99.252 E4.20413
G1 X95.267 Y98.692 E4.22399
G1 X95.587 Y97.778 E4.25781
G1 X95.828 Y97.263 E4.27767
G1 X96.105 Y96.833 E4.29553
G1 X96.735 Y96.046 E4.33073
G0 F4266.7 X97.055 Y96.319
G1 F1200 X97.466 Y95.951 E4.35
G1 X98.003 Y95.558 E4.37324
G1 X98.469 Y95.289 E4.39203
G1 X99.236 Y94.995 E4.42072
G1 X99.914 Y94.821 E4.44516
G1 X100.844 Y94.716 E4.47785
G1 X101.994 Y94.638 E4.5181
G1 X123.354 Y93.341 E5.26543
G1 X124.206 Y93.302 E5.29522
G1 X125.169 Y93.289 E5.32885
G1 X125.997 Y93.312 E5.35778
G1 X126.664 Y93.356 E5.38113
G1 X127.379 Y93.432 E5.40624
G1 X127.962 Y93.516 E5.42681
G1 X128.852 Y93.68 E5.45841
G1 X129.452 Y93.816 E5.4799
G1 X130.259 Y94.032 E5.50907
G1 X130.769 Y94.189 E5.52771
G1 X131.39 Y94.404 E5.55066
G1 X132.006 Y94.64 E5.57369
G1 X132.655 Y94.917 E5.59834
G1 X133.189 Y95.168 E5.61894
G1 X133.736 Y95.448 E5.6404
G1 X134.273 Y95.744 E5.66182
G1 X134.764 Y96.037 E5.68179
G1 X135.448 Y96.479 E5.71023
G1 X135.931 Y96.816 E5.7308
G1 X136.382 Y97.15 E5.7504
G1 X136.79 Y97.481 E5.76874
G1 X137.536 Y98.134 E5.80337
G1 X137.943 Y98.513 E5.82279
G1 X138.324 Y98.895 E5.84163
G1 X138.829 Y99.441 E5.8676
G1 X139.401 Y100.111 E5.89837
G1 X139.851 Y100.681 E5.92373
G1 X140.148 Y101.085 E5.94124
G1 X140.477 Y101.572 E5.96177
G1 X140.953 Y102.33 E5.99303
G1 X141.215 Y102.83 E6.01274
G1 X141.585 Y103.794 E6.0488
G1 X141.693 Y104.429 E6.0713
G1 X141.726 Y105.359 E6.10379
G1 X141.618 Y106.021 E6.12722
G1 X141.335 Y106.95 E6.16113
G1 X141.029 Y107.545 E6.1845
G1 X140.749 Y108.013 E6.20355
G1 X140.286 Y108.715 E6.23291
G1 X139.929 Y109.213 E6.25431
G1 X139.256 Y110.076 E6.29253
G1 X138.783 Y110.623 E6.31779
G1 X138.219 Y111.212 E6.34627
G1 X137.633 Y111.781 E6.37479
G1 X137.249 Y112.124 E6.39277
G1 X136.546 Y112.71 E6.42474
G1 X136.05 Y113.097 E6.44671
G1 X135.54 Y113.464 E6.46865
G1 X134.308 Y114.235 E6.51941
G1 X133.074 Y114.888 E6.56816
G1 X132.236 Y115.263 E6.60022
G1 X131.27 Y115.641 E6.63645
G1 X130.099 Y116.012 E6.67935
G1 X129.587 Y116.15 E6.69787
G1 X128.803 Y116.331 E6.72597
G1 X128.23 Y116.443 E6.74636
G1 X127.682 Y116.527 E6.76572
G1 X127.028 Y116.607 E6.78873
G1 X126.216 Y116.678 E6.81719
G1 X125.693 Y116.704 E6.83548
G1 X125.004 Y116.715 E6.85955
G1 X123.898 Y116.689 E6.89818
G1 X101.433 Y115.327 E7.68417
G1 X100.901 Y115.288 E7.7028
G1 X100.071 Y115.2 E7.73195
G1 X99.542 Y115.102 E7.75074
G1 X98.656 Y114.782 E7.78364
G1 X98.17 Y114.551 E7.80243
G1 X97.703 Y114.234 E7.82214
G1 X96.984 Y113.607 E7.85546
G1 X96.579 Y113.11 E7.87785
G1 X96.278 Y112.673 E7.89638
G1 X96.02 Y112.2 E7.91519
G1 X95.804 Y111.616 E7.93694
G1 X95.561 Y110.57 E7.97444
G1 X95.524 Y110.062 E7.99223
G1 X95.497 Y108.754 E8.03792
G1 X95.496 Y100.804 E8.31556
G1 X95.505 Y100.202 E8.33658
G1 X95.586 Y99.296 E8.36835
G1 X95.681 Y98.766 E8.38715
G1 X95.978 Y97.929 E8.41817
G1 X96.209 Y97.443 E8.43696
G1 X96.704 Y96.728 E8.46733
G1 X97.055 Y96.319 E8.48616
G0 F4266.7 X97.529 Y96.451
G1 F1200 X98.033 Y96.045 E8.50876
G1 X98.679 Y95.654 E8.53513
G1 X99.376 Y95.391 E8.56115
G1 X99.999 Y95.232 E8.5836
G1 X100.879 Y95.135 E8.61452
G1 X102.022 Y95.057 E8.65453
G1 X123.379 Y93.76 E9.40176
G1 X124.225 Y93.721 E9.43133
G1 X125.174 Y93.709 E9.46448
G1 X125.984 Y93.732 E9.49278
G1 X126.635 Y93.775 E9.51556
G1 X127.334 Y93.849 E9.54011
G1 X127.9 Y93.931 E9.56008
G1 X128.774 Y94.093 E9.59112
G1 X129.343 Y94.222 E9.6115
G1 X130.15 Y94.438 E9.64067
G1 X130.631 Y94.586 E9.65825
G1 X131.252 Y94.801 E9.6812
G1 X131.855 Y95.032 E9.70375
G1 X132.489 Y95.303 E9.72783
G1 X132.998 Y95.542 E9.74747
G1 X133.545 Y95.822 E9.76893
G1 X134.069 Y96.111 E9.78983
G1 X134.548 Y96.397 E9.80931
G1 X135.219 Y96.831 E9.83722
G1 X135.689 Y97.16 E9.85725
G1 X136.132 Y97.487 E9.87648
G1 X137.259 Y98.45 E9.92825
G1 X137.656 Y98.819 E9.94718
G1 X138.025 Y99.19 E9.96546
G1 X138.52 Y99.725 E9.99091
G1 X139.081 Y100.382 E10.02108
G1 X139.52 Y100.94 E10.04588
G1 X139.867 Y101.417 E10.06648
G1 X140.597 Y102.553 E10.11363
G1 X140.829 Y102.996 E10.1311
G1 X141.187 Y103.93 E10.16603
G1 X141.274 Y104.462 E10.18486
G1 X141.305 Y105.36 E10.21624
G1 X141.212 Y105.915 E10.23589
G1 X140.937 Y106.813 E10.26869
G1 X140.66 Y107.344 E10.2896
G1 X140.399 Y107.781 E10.30738
G1 X139.936 Y108.483 E10.33675
G1 X139.589 Y108.967 E10.35754
G1 X138.925 Y109.817 E10.39521
G1 X138.468 Y110.345 E10.4196
G1 X137.917 Y110.921 E10.44744
G1 X137.341 Y111.479 E10.47544
G1 X136.277 Y112.388 E10.52432
G1 X135.793 Y112.765 E10.54574
G1 X135.31 Y113.113 E10.56653
G1 X134.089 Y113.876 E10.61681
G1 X132.879 Y114.515 E10.6646
G1 X132.068 Y114.878 E10.69563
G1 X131.118 Y115.25 E10.73126
G1 X129.975 Y115.611 E10.77312
G1 X129.492 Y115.741 E10.79059
G1 X128.708 Y115.922 E10.81869
G1 X128.165 Y116.028 E10.83801
G1 X127.631 Y116.11 E10.85688
G1 X126.977 Y116.19 E10.87989
G1 X126.181 Y116.26 E10.9078
G1 X125.674 Y116.285 E10.92552
G1 X124.999 Y116.295 E10.9491
G1 X123.909 Y116.269 E10.98718
G1 X101.459 Y114.908 E11.77264
G1 X100.932 Y114.869 E11.79109
G1 X100.117 Y114.782 E11.81972
G1 X99.619 Y114.688 E11.83742
G1 X98.808 Y114.391 E11.86758
G1 X98.352 Y114.171 E11.88526
G1 X97.641 Y113.646 E11.91613
G1 X97.119 Y113.119 E11.94203
G1 X96.741 Y112.615 E11.96403
G1 X96.39 Y111.999 E11.98879
G1 X96.202 Y111.483 E12.00797
G1 X95.98 Y110.531 E12.04211
G1 X95.917 Y108.745 E12.10452
G1 X95.916 Y100.81 E12.38164
G1 X95.925 Y100.208 E12.40266
G1 X96.003 Y99.339 E12.43313
G1 X96.096 Y98.842 E12.45079
G1 X96.37 Y98.08 E12.47907
G1 X96.589 Y97.624 E12.49674
G1 X97.042 Y96.977 E12.52432
G1 X97.529 Y96.451 E12.54936
G1 F1800 E11.74936
;MESH:3DBenchy.stl
G0 F4266.7 X117.758 Y103.678
;TYPE:WALL-INNER
G1 F1800 E12.63251
G1 F1200 X118.117 Y103.69 E12.64505
G1 X118.149 Y103.694 E12.64618
G1 X118.513 Y103.744 E12.65901
G1 X118.674 Y103.808 E12.66506
G1 X118.69 Y103.821 E12.66578
G1 X118.813 Y103.997 E12.67328
G1 X118.927 Y104.325 E12.6854
G1 X118.984 Y104.788 E12.7017
G1 X118.973 Y105.269 E12.7185
G1 X118.898 Y105.668 E12.73268
G1 X118.771 Y105.959 E12.74376
G1 X118.642 Y106.104 E12.75054
G1 X118.502 Y106.178 E12.75607
G1 X118.153 Y106.238 E12.76844
G1 X118.133 Y106.241 E12.76915
G1 X117.825 Y106.248 E12.7799
G1 X117.765 Y106.249 E12.782
G1 X117.749 Y106.25 E12.78256
G1 X117.749 Y106.231 E12.7828
G1 X117.749 Y106.21 E12.78353
G1 X117.757 Y105.949 E12.79265
G1 X117.757 Y105.889 E12.79475
G1 X117.757 Y103.723 E12.87039
G1 X117.757 Y103.69 E12.87148
G1 X117.758 Y103.678 E12.87191
G0 F4266.7 X117.354 Y103.292
;TYPE:WALL-OUTER
G1 F1200 X117.649 Y103.254 E12.88229
G1 X118.148 Y103.271 E12.89973
G1 X118.62 Y103.335 E12.91636
G1 X118.89 Y103.442 E12.92651
G1 X119 Y103.531 E12.93145
G1 X119.19 Y103.805 E12.94309
G1 X119.339 Y104.231 E12.95885
G1 X119.405 Y104.767 E12.97771
G1 X119.392 Y105.314 E12.99682
G1 X119.302 Y105.792 E13.01381
G1 X119.129 Y106.188 E13.0289
G1 X118.907 Y106.439 E13.0406
G1 X118.638 Y106.581 E13.05123
G1 X118.172 Y106.66 E13.06773
G1 X117.672 Y106.673 E13.0852
G1 X117.66 Y106.673 E13.08562
G1 X117.412 Y106.668 E13.09428
G1 X117.36 Y106.623 E13.09668
G1 X117.323 Y106.463 E13.10242
G1 X117.323 Y106.451 E13.10284
G1 X117.337 Y105.943 E13.12059
G1 X117.337 Y103.693 E13.19916
G1 X117.354 Y103.292 E13.21318
G0 F4266.7 X117.552 Y103.267
G0 X117.799 Y103.725
G0 X118.139 Y103.883
;TYPE:SKIN
G1 F1200 X118.759 Y104.504 E13.24382
G0 F4266.7 X118.786 Y105.125
G1 F1200 X117.946 Y104.285 E13.28531
G0 F4266.7 X117.946 Y104.878
G1 F1200 X118.704 Y105.636 E13.32275
G0 F4266.7 X118.458 Y105.985
G1 F1200 X117.945 Y105.472 E13.34808
G1 F1800 E12.54808
G0 F4266.7 X105.029 Y106.882
;TYPE:WALL-INNER
G1 F1800 E13.43123
G1 F1200 X104.762 Y106.311 E13.45325
G1 X104.233 Y105.968 E13.47527
G1 X103.647 Y105.899 E13.49587
G1 X103.155 Y106.087 E13.51427
G1 X102.864 Y106.372 E13.52849
G1 X102.745 Y106.412 E13.53288
G1 X102.468 Y106.421 E13.54255
G1 X102.219 Y106.354 E13.55156
G1 X102.038 Y106.239 E13.55905
G1 X101.906 Y106.074 E13.56643
G1 X101.773 Y105.735 E13.57915
G1 X101.704 Y105.255 E13.59608
G1 X101.697 Y104.78 E13.61267
G1 X101.742 Y104.337 E13.62822
G1 X101.851 Y103.964 E13.64179
G1 X101.979 Y103.753 E13.65041
G1 X102.141 Y103.616 E13.65782
G1 X102.363 Y103.525 E13.6662
G1 X102.571 Y103.51 E13.67348
G1 X102.715 Y103.552 E13.67872
G1 X103.136 Y103.806 E13.69589
G1 X103.672 Y104.027 E13.71614
G1 X104.252 Y103.991 E13.73643
G1 X104.734 Y103.62 E13.75768
G1 X104.9 Y103.25 E13.77184
G1 X104.939 Y103.163 E13.77517
G1 X104.991 Y103.29 E13.77651
G1 X105.459 Y103.636 E13.79683
G1 X106.043 Y103.667 E13.81726
G1 X106.408 Y103.621 E13.83011
G1 X106.551 Y103.603 E13.83514
G1 X106.674 Y103.613 E13.83945
G1 X106.682 Y103.723 E13.8433
G1 X106.674 Y103.868 E13.84837
G1 X106.653 Y104.225 E13.86086
G1 X106.662 Y104.86 E13.88304
G1 X106.657 Y106.228 E13.93081
G1 X106.666 Y106.73 E13.94835
G1 X106.646 Y107.26 E13.96687
G1 X106.649 Y107.848 E13.98741
G1 X106.984 Y108.334 E14.00802
G1 X107.556 Y108.545 E14.02931
G1 X108.144 Y108.494 E14.04992
G1 X108.618 Y108.157 E14.07023
G1 X108.849 Y107.626 E14.09046
G1 X108.867 Y106.916 E14.11526
G1 X108.857 Y106.384 E14.13384
G1 X108.859 Y103.84 E14.22269
G1 X108.859 Y103.622 E14.2303
G1 X109.077 Y103.631 E14.23518
G1 X109.301 Y103.641 E14.24301
G1 X109.981 Y103.584 E14.26684
G1 X110.503 Y103.322 E14.28724
G1 X110.582 Y103.164 E14.29341
G1 X110.649 Y103.03 E14.29864
G1 X110.698 Y103.222 E14.30074
G1 X111.111 Y103.694 E14.32264
G1 X111.487 Y103.822 E14.33651
G1 X111.612 Y103.865 E14.34113
G1 X111.379 Y104.139 E14.34921
G1 X111.235 Y104.719 E14.37008
G1 X111.362 Y105.297 E14.39074
G1 X111.789 Y105.654 E14.41018
G1 X111.799 Y105.662 E14.41063
G1 X112.056 Y105.715 E14.41979
G1 X112.409 Y105.789 E14.43239
G1 X112.685 Y105.888 E14.44263
G1 X112.85 Y106.018 E14.44997
G1 X112.866 Y106.041 E14.45094
G1 X112.958 Y106.179 E14.45674
G1 X112.986 Y106.291 E14.46077
G1 X112.973 Y106.386 E14.46412
G1 X112.93 Y106.46 E14.46711
G1 X112.861 Y106.512 E14.47012
G1 X112.821 Y106.522 E14.47156
G1 X112.751 Y106.472 E14.47347
G1 X112.616 Y106.376 E14.47884
G1 X112.475 Y106.276 E14.48488
G1 X111.984 Y106.065 E14.50354
G1 X111.812 Y106.07 E14.50889
G1 X111.798 Y106.07 E14.50938
G1 X111.364 Y106.084 E14.52454
G1 X110.855 Y106.365 E14.54485
G1 X110.578 Y106.89 E14.56558
G1 X110.599 Y107.496 E14.58675
G1 X110.851 Y108.003 E14.60653
G1 X111.29 Y108.37 E14.62651
G1 X111.767 Y108.566 E14.64452
G1 X112.407 Y108.679 E14.66722
G1 X113.029 Y108.678 E14.68894
G1 X113.683 Y108.554 E14.71218
G1 X114.275 Y108.262 E14.73524
G1 X114.762 Y107.819 E14.75823
G1 X115.076 Y107.312 E14.77906
G1 X115.122 Y107.238 E14.7821
G1 X115.264 Y106.771 E14.79914
G1 X115.316 Y106.601 E14.80535
G1 X115.332 Y105.982 E14.82698
G1 X115.173 Y105.31 E14.85109
G1 X115.079 Y105.071 E14.86006
G1 X114.927 Y104.688 E14.87445
G1 X114.732 Y104.488 E14.88421
G1 X114.746 Y104.476
G1 X114.811 Y104.421 E14.88718
G1 X115.036 Y103.887 E14.90742
G1 X115.081 Y103.418 E14.92387
G1 X115.098 Y103.237 E14.93022
G1 X115.1 Y103.217 E14.93092
G1 X115.072 Y102.945 E14.94047
G1 X115.034 Y102.595 E14.95277
G1 X114.757 Y102.057 E14.9739
G1 X114.303 Y101.628 E14.99571
G1 X113.726 Y101.362 E15.0179
G1 X113.074 Y101.251 E15.041
G1 X112.44 Y101.251 E15.06314
G1 X111.804 Y101.368 E15.08573
G1 X111.218 Y101.635 E15.10822
G1 X110.922 Y101.9 E15.12209
G1 X110.741 Y102.062 E15.13057
G1 X110.728 Y102.1 E15.13198
G1 X110.715 Y102.077
G1 X110.597 Y101.863 E15.13742
G1 X110.479 Y101.649 E15.14595
G1 X109.968 Y101.423 E15.16546
G1 X107.343 Y101.417 E15.25714
G1 X106.784 Y101.422 E15.27666
G1 X105.592 Y101.395 E15.3183
G1 X105.105 Y101.653 E15.33755
G1 X104.857 Y102.068 E15.35443
G1 X104.818 Y102.133 E15.35708
G1 X104.801 Y102.162 E15.35825
G1 X104.793 Y102.307 E15.36332
G1 X104.728 Y102.213 E15.36348
G1 X104.574 Y101.988 E15.3702
G1 X104.514 Y101.942 E15.37252
G1 X104.044 Y101.581 E15.39322
G1 X103.44 Y101.336 E15.41598
G1 X102.749 Y101.244 E15.44032
G1 X102.057 Y101.278 E15.46452
G1 X101.375 Y101.463 E15.4892
G1 X100.76 Y101.806 E15.51379
G1 X100.245 Y102.285 E15.53835
G1 X100.149 Y102.425 E15.54428
